X:185
T: HAESCHEN IN DER GRUBE
N: K2409
O: Europa, Mitteleuropa, Deutschland
R: Kinder - Lied, Tanz -, Lauf - Spiel
M: 2/4
L: 1/8
K: F
 | FGAB | c2c2 |
d2fd | c2z2 |
cBBB | BAA2 |
AGGG | GFF2 |
FAc2 | cAF2

@@@ Tune index: 7522
